src/assets/star.svg

<svg fill="none" height="23" viewBox="0 0 25 23" width="25" xmlns="http://www.w3.org/2000/svg"><path clip-rule="evenodd" d="m25 8.65385-8.75-1.1077-3.75-7.54615-3.75 7.54615-8.75 1.1077 6.42857 5.64235-1.66071 8.2038 7.73214-4.0327 7.7321 4.0327-1.6607-8.2038z" fill="#f1e05a" fill-rule="evenodd"/></svg>

<svg width="25" height="23" viewBox="0 0 25 23" fill="none" xmlns="http://www.w3.org/2000/svg">
<path fill-rule="evenodd" clip-rule="evenodd" d="M25 8.65385L16.25 7.54615L12.5 0L8.75 7.54615L0 8.65385L6.42857 14.2962L4.76786 22.5L12.5 18.4673L20.2321 22.5L18.5714 14.2962L25 8.65385Z" fill="#F1E05A"/>
</svg>
